X: 27434
T: Moll's Gap
R: reel
M: 4/4
K: Cmajor
GF|:EGcG AcGF|EG,CE DB,G,D|EGcG ABcd|egdg ec ~c2|
EGcG AcGF|DECE DB,G,D|E3 G EF ~F2|1 GAB/c/d edcG:|2 GAB/c/d edcA||
|:Gcec egge|fdde dcAc|Gcec egge|~d6 cA|
Gcec egge|fdde dcAG|E3 G EF ~F2|1 GAB/c/d edcA:|2 GAB/c/d edcG||

